X:214
T:Up Leitrim
R:jig
D:Frankie Gavin: Croch Suas E
D:Patrick Street 2
Z:id:hn-jig-214
M:6/8
K:D
f2e dAA|BAB dBA|f2e dBA|Bdf e2d:|
|:fga gab|faa afd|1 fga gab|afd e2d:|2 f2e dBA|Bdf e2d||
